src/images/webpack.svg

<svg width="233" height="233" viewBox="0 0 233 233" fill="none" xmlns="http://www.w3.org/2000/svg">
<g clip-path="url(#clip0)">
<path d="M115.184 116.871L83.7 135.079V98.6259L115.258 80.4181L115.184 116.871Z" fill="#79B8FF"/>
<path d="M83.6629 71.0361C81.7193 71.0361 79.8193 70.4597 78.2033 69.3799C76.5873 68.3001 75.3277 66.7653 74.5839 64.9697C73.8401 63.174 73.6455 61.1981 74.0247 59.2919C74.4039 57.3856 75.3398 55.6346 76.7142 54.2603C78.0885 52.886 79.8395 51.95 81.7458 51.5708C83.652 51.1917 85.6279 51.3863 87.4235 52.1301C89.2192 52.8738 90.754 54.1334 91.8338 55.7494C92.9136 57.3655 93.4899 59.2654 93.4899 61.2091C93.4899 63.8153 92.4546 66.3149 90.6117 68.1578C88.7687 70.0007 86.2692 71.0361 83.6629 71.0361V71.0361ZM83.6629 58.7986C83.1862 58.7986 82.7202 58.94 82.3238 59.2049C81.9274 59.4697 81.6184 59.8462 81.436 60.2866C81.2536 60.7271 81.2058 61.2117 81.2988 61.6793C81.3918 62.1469 81.6214 62.5764 81.9585 62.9135C82.2956 63.2506 82.7251 63.4801 83.1927 63.5731C83.6602 63.6661 84.1449 63.6184 84.5853 63.436C85.0258 63.2535 85.4022 62.9446 85.6671 62.5482C85.9319 62.1518 86.0733 61.6858 86.0733 61.2091C86.054 60.5827 85.7916 59.9885 85.3416 59.5524C84.8917 59.1163 84.2895 58.8725 83.6629 58.8728V58.7986Z" fill="#2088FF"/>
<path d="M84.5158 181.247C82.5722 181.247 80.6723 180.671 79.0562 179.591C77.4402 178.511 76.1806 176.976 75.4368 175.181C74.693 173.385 74.4984 171.409 74.8776 169.503C75.2568 167.597 76.1927 165.846 77.5671 164.471C78.9414 163.097 80.6924 162.161 82.5987 161.782C84.5049 161.403 86.4808 161.597 88.2765 162.341C90.0721 163.085 91.6069 164.344 92.6867 165.961C93.7665 167.577 94.3428 169.477 94.3428 171.42C94.3428 172.711 94.0887 173.988 93.5948 175.181C93.1009 176.373 92.3771 177.456 91.4646 178.369C90.552 179.281 89.4687 180.005 88.2765 180.499C87.0842 180.993 85.8063 181.247 84.5158 181.247V181.247ZM84.5158 169.01C84.0391 169.01 83.5731 169.151 83.1767 169.416C82.7803 169.681 82.4713 170.057 82.2889 170.498C82.1065 170.938 82.0587 171.423 82.1517 171.89C82.2447 172.358 82.4743 172.787 82.8114 173.125C83.1485 173.462 83.578 173.691 84.0456 173.784C84.5131 173.877 84.9978 173.829 85.4382 173.647C85.8787 173.465 86.2551 173.156 86.52 172.759C86.7848 172.363 86.9262 171.897 86.9262 171.42C86.9311 171.1 86.8724 170.783 86.7535 170.486C86.6346 170.19 86.4578 169.919 86.2335 169.692C86.0092 169.464 85.7418 169.283 85.4469 169.16C85.152 169.036 84.8355 168.973 84.5158 168.973V169.01Z" fill="#2088FF"/>
<path d="M52.3648 126.401C50.4212 126.401 48.5212 125.825 46.9051 124.745C45.2891 123.665 44.0295 122.13 43.2858 120.335C42.542 118.539 42.3474 116.563 42.7265 114.657C43.1057 112.751 44.0417 111 45.416 109.625C46.7903 108.251 48.5413 107.315 50.4476 106.936C52.3538 106.557 54.3297 106.751 56.1254 107.495C57.921 108.239 59.4558 109.499 60.5356 111.115C61.6154 112.731 62.1918 114.631 62.1918 116.574C62.1918 119.18 61.1564 121.68 59.3135 123.523C57.4706 125.366 54.971 126.401 52.3648 126.401V126.401ZM52.3648 114.164C51.888 114.164 51.422 114.305 51.0256 114.57C50.6292 114.835 50.3203 115.211 50.1378 115.652C49.9554 116.092 49.9077 116.577 50.0007 117.044C50.0937 117.512 50.3232 117.941 50.6603 118.279C50.9974 118.616 51.4269 118.845 51.8945 118.938C52.3621 119.031 52.8467 118.984 53.2872 118.801C53.7276 118.619 54.1041 118.31 54.3689 117.913C54.6338 117.517 54.7752 117.051 54.7752 116.574C54.7752 115.935 54.5212 115.322 54.0692 114.87C53.6171 114.418 53.004 114.164 52.3648 114.164Z" fill="#2088FF"/>
<path d="M180.635 126.401C178.692 126.401 176.792 125.825 175.176 124.745C173.56 123.665 172.3 122.13 171.556 120.335C170.812 118.539 170.618 116.563 170.997 114.657C171.376 112.751 172.312 111 173.687 109.625C175.061 108.251 176.812 107.315 178.718 106.936C180.624 106.557 182.6 106.751 184.396 107.495C186.192 108.239 187.726 109.499 188.806 111.115C189.886 112.731 190.462 114.631 190.462 116.574C190.462 119.18 189.427 121.68 187.584 123.523C185.741 125.366 183.242 126.401 180.635 126.401V126.401ZM180.635 114.164C180.159 114.164 179.692 114.305 179.296 114.57C178.9 114.835 178.591 115.211 178.408 115.652C178.226 116.092 178.178 116.577 178.271 117.044C178.364 117.512 178.594 117.941 178.931 118.279C179.268 118.616 179.697 118.845 180.165 118.938C180.633 119.031 181.117 118.984 181.558 118.801C181.998 118.619 182.375 118.31 182.639 117.913C182.904 117.517 183.046 117.051 183.046 116.574C183.046 115.935 182.792 115.322 182.34 114.87C181.888 114.418 181.275 114.164 180.635 114.164Z" fill="#2088FF"/>
<path d="M177.632 134.93C176.648 134.93 175.705 135.321 175.009 136.016C174.314 136.712 173.923 137.655 173.923 138.639V145.351L161.537 138.157C161.114 137.911 160.647 137.752 160.162 137.689C159.677 137.625 159.184 137.658 158.712 137.785C158.239 137.913 157.797 138.132 157.41 138.432C157.023 138.731 156.699 139.104 156.457 139.529C155.974 140.38 155.847 141.388 156.104 142.333C156.361 143.278 156.981 144.083 157.829 144.572L169.955 151.581L164.43 154.77C163.716 155.175 163.156 155.805 162.838 156.562C162.521 157.32 162.464 158.161 162.676 158.954C162.888 159.747 163.357 160.448 164.01 160.945C164.663 161.443 165.463 161.71 166.284 161.704C166.937 161.698 167.577 161.518 168.138 161.185L181.229 153.769V138.639C181.229 137.674 180.854 136.747 180.182 136.055C179.51 135.363 178.596 134.959 177.632 134.93Z" fill="#79B8FF"/>
<path d="M168.138 71.6665C167.283 71.1747 166.267 71.043 165.314 71.3003C164.361 71.5577 163.55 72.1829 163.058 73.0386C162.566 73.8942 162.434 74.9102 162.692 75.8629C162.949 76.8157 163.574 77.6272 164.43 78.119L169.955 81.271L156.976 88.6877C156.262 89.0925 155.702 89.7229 155.385 90.4802C155.067 91.2374 155.01 92.0786 155.222 92.8718C155.434 93.6651 155.903 94.3655 156.556 94.8632C157.21 95.361 158.009 95.6279 158.83 95.6222C159.483 95.6154 160.123 95.4363 160.685 95.103L173.923 87.6122V94.3614C173.923 95.3449 174.314 96.2881 175.009 96.9835C175.705 97.679 176.648 98.0697 177.632 98.0697C178.615 98.0697 179.558 97.679 180.254 96.9835C180.949 96.2881 181.34 95.3449 181.34 94.3614V79.2314L168.138 71.6665Z" fill="#79B8FF"/>
<path d="M148.558 138.008C147.905 138.001 147.266 137.822 146.704 137.489L115.109 119.392C114.302 118.879 113.725 118.074 113.497 117.145C113.269 116.216 113.41 115.235 113.888 114.407C114.367 113.579 115.147 112.968 116.066 112.701C116.984 112.435 117.97 112.534 118.818 112.977L150.413 131.074C151.242 131.581 151.839 132.394 152.075 133.337C152.31 134.281 152.166 135.279 151.673 136.117C151.361 136.674 150.91 137.14 150.364 137.472C149.819 137.803 149.196 137.988 148.558 138.008V138.008Z" fill="#2088FF"/>
<path d="M116.964 119.912C115.98 119.912 115.037 119.521 114.341 118.826C113.646 118.13 113.255 117.187 113.255 116.203L113.478 81.1227C113.478 80.1392 113.868 79.196 114.564 78.5006C115.259 77.8051 116.203 77.4144 117.186 77.4144C118.17 77.4144 119.113 77.8051 119.808 78.5006C120.504 79.196 120.894 80.1392 120.894 81.1227L120.672 116.166C120.677 116.656 120.584 117.143 120.4 117.597C120.216 118.051 119.944 118.464 119.599 118.812C119.254 119.161 118.844 119.437 118.391 119.626C117.939 119.815 117.454 119.912 116.964 119.912V119.912Z" fill="#2088FF"/>
<path d="M86.2958 137.452C85.4747 137.458 84.6749 137.191 84.0219 136.693C83.3688 136.195 82.8995 135.495 82.6874 134.702C82.4753 133.908 82.5324 133.067 82.8499 132.31C83.1674 131.553 83.7272 130.922 84.4416 130.517L115.109 112.977C115.531 112.709 116.003 112.529 116.497 112.447C116.99 112.366 117.495 112.386 117.981 112.505C118.467 112.624 118.923 112.84 119.324 113.14C119.724 113.44 120.059 113.818 120.309 114.251C120.56 114.684 120.72 115.163 120.78 115.659C120.84 116.156 120.8 116.659 120.66 117.14C120.521 117.62 120.286 118.067 119.969 118.454C119.653 118.842 119.261 119.161 118.818 119.392L88.1499 136.97C87.5848 137.29 86.9454 137.456 86.2958 137.452V137.452Z" fill="#2088FF"/>
<path d="M117.038 156.327C116.388 156.332 115.749 156.166 115.184 155.845L83.6258 137.6C83.0653 137.277 82.5993 136.812 82.274 136.253C81.9487 135.693 81.7755 135.058 81.7716 134.411V97.9584C81.769 97.305 81.9392 96.6625 82.2648 96.0959C82.5904 95.5294 83.0599 95.0589 83.6258 94.7322L115.184 76.5244C115.747 76.1989 116.387 76.0276 117.038 76.0276C117.689 76.0276 118.328 76.1989 118.892 76.5244L150.45 94.7322C151.015 95.0589 151.485 95.5294 151.811 96.0959C152.136 96.6625 152.306 97.305 152.304 97.9584V134.411C152.3 135.058 152.127 135.693 151.801 136.253C151.476 136.812 151.01 137.277 150.45 137.6L118.892 155.845C118.327 156.166 117.687 156.332 117.038 156.327V156.327ZM89.1883 132.26L117.038 148.354L144.887 132.26V100.072L117.038 84.0152L89.1883 100.072V132.26Z" fill="#2088FF"/>
<path d="M148.818 71.0361C146.874 71.0361 144.974 70.4597 143.358 69.3799C141.742 68.3001 140.483 66.7653 139.739 64.9697C138.995 63.174 138.801 61.1981 139.18 59.2919C139.559 57.3856 140.495 55.6346 141.869 54.2603C143.244 52.886 144.995 51.95 146.901 51.5708C148.807 51.1917 150.783 51.3863 152.579 52.1301C154.374 52.8738 155.909 54.1334 156.989 55.7494C158.069 57.3655 158.645 59.2654 158.645 61.2091C158.645 63.8153 157.61 66.3149 155.767 68.1578C153.924 70.0007 151.424 71.0361 148.818 71.0361V71.0361ZM148.818 58.7986C148.341 58.7986 147.875 58.94 147.479 59.2049C147.082 59.4697 146.774 59.8462 146.591 60.2866C146.409 60.7271 146.361 61.2117 146.454 61.6793C146.547 62.1469 146.776 62.5764 147.114 62.9135C147.451 63.2506 147.88 63.4801 148.348 63.5731C148.815 63.6661 149.3 63.6184 149.74 63.436C150.181 63.2535 150.557 62.9446 150.822 62.5482C151.087 62.1518 151.228 61.6858 151.228 61.2091C151.209 60.5827 150.947 59.9885 150.497 59.5524C150.047 59.1163 149.445 58.8725 148.818 58.8728V58.7986Z" fill="#2088FF"/>
<path d="M149.337 181.878C147.39 181.892 145.483 181.328 143.857 180.258C142.232 179.187 140.961 177.657 140.205 175.863C139.45 174.069 139.245 172.09 139.616 170.179C139.987 168.268 140.917 166.51 142.288 165.128C143.659 163.747 145.41 162.803 147.318 162.418C149.227 162.033 151.206 162.223 153.006 162.965C154.806 163.706 156.345 164.966 157.429 166.583C158.512 168.201 159.09 170.104 159.09 172.051C159.09 174.644 158.065 177.132 156.238 178.973C154.411 180.814 151.931 181.858 149.337 181.878V181.878ZM149.337 169.64C148.86 169.64 148.394 169.782 147.998 170.046C147.602 170.311 147.293 170.688 147.11 171.128C146.928 171.569 146.88 172.053 146.973 172.521C147.066 172.988 147.296 173.418 147.633 173.755C147.97 174.092 148.399 174.322 148.867 174.415C149.334 174.508 149.819 174.46 150.26 174.277C150.7 174.095 151.076 173.786 151.341 173.39C151.606 172.993 151.748 172.527 151.748 172.051C151.738 171.414 151.481 170.807 151.031 170.357C150.581 169.907 149.973 169.65 149.337 169.64V169.64Z" fill="#2088FF"/>
<path d="M126.123 177.02L120.486 180.246V166.414C120.486 165.43 120.096 164.487 119.4 163.792C118.705 163.096 117.762 162.706 116.778 162.706C115.795 162.706 114.851 163.096 114.156 163.792C113.46 164.487 113.07 165.43 113.07 166.414V180.209L107.174 177.02C106.327 176.533 105.322 176.4 104.377 176.65C103.433 176.9 102.626 177.513 102.13 178.355C101.884 178.776 101.722 179.241 101.656 179.725C101.589 180.208 101.619 180.7 101.743 181.172C101.867 181.644 102.083 182.087 102.379 182.475C102.674 182.863 103.043 183.19 103.465 183.435L116.556 190.852L129.683 183.435C130.105 183.19 130.474 182.863 130.77 182.475C131.065 182.087 131.281 181.644 131.405 181.172C131.529 180.7 131.559 180.208 131.492 179.725C131.426 179.241 131.265 178.776 131.018 178.355C130.524 177.552 129.744 176.967 128.835 176.719C127.925 176.471 126.956 176.579 126.123 177.02V177.02Z" fill="#79B8FF"/>
<path d="M129.831 49.565L116.704 42.1483L103.465 49.565C102.658 50.0781 102.08 50.8832 101.853 51.8122C101.625 52.7412 101.766 53.7222 102.244 54.5503C102.723 55.3784 103.503 55.9895 104.422 56.2559C105.34 56.5224 106.326 56.4237 107.174 55.9804L112.921 52.68V65.0657C112.921 66.0492 113.312 66.9924 114.008 67.6879C114.703 68.3833 115.646 68.774 116.63 68.774C117.613 68.774 118.557 68.3833 119.252 67.6879C119.947 66.9924 120.338 66.0492 120.338 65.0657V52.717L125.975 55.9804C126.529 56.2945 127.155 56.4605 127.792 56.4624C128.604 56.4622 129.394 56.1951 130.04 55.7023C130.686 55.2095 131.152 54.5182 131.367 53.7347C131.582 52.9512 131.533 52.1188 131.229 51.3655C130.925 50.6121 130.382 49.9796 129.683 49.565H129.831Z" fill="#79B8FF"/>
<path d="M75.8384 88.5393L63.3785 81.1227L69.0151 77.8965C69.8707 77.4047 70.496 76.5932 70.7533 75.6405C71.0106 74.6877 70.8789 73.6717 70.3872 72.8161C69.8954 71.9604 69.0839 71.3352 68.1311 71.0779C67.1784 70.8206 66.1624 70.9523 65.3068 71.444L52.2164 78.8606V93.9906C52.2164 94.9741 52.6071 95.9173 53.3026 96.6127C53.998 97.3082 54.9412 97.6989 55.9247 97.6989C56.9082 97.6989 57.8515 97.3082 58.5469 96.6127C59.2424 95.9173 59.6331 94.9741 59.6331 93.9906V87.7235L72.093 95.1401C72.5162 95.3853 72.9838 95.5444 73.4688 95.6081C73.9537 95.6718 74.4465 95.639 74.9187 95.5114C75.391 95.3839 75.8333 95.1642 76.2202 94.865C76.6072 94.5658 76.9311 94.193 77.1734 93.7681C77.4439 93.3412 77.6243 92.8635 77.7035 92.3644C77.7828 91.8653 77.7592 91.3553 77.6342 90.8656C77.5091 90.376 77.2854 89.917 76.9765 89.517C76.6677 89.117 76.2804 88.7843 75.8384 88.5393V88.5393Z" fill="#79B8FF"/>
<path d="M71.3513 138.416L59.6331 145.239V138.639C59.6331 137.655 59.2424 136.712 58.5469 136.016C57.8515 135.321 56.9082 134.93 55.9247 134.93C54.9412 134.93 53.998 135.321 53.3026 136.016C52.6071 136.712 52.2164 137.655 52.2164 138.639V153.731L53.5885 154.547C53.8882 154.768 54.2116 154.955 54.5527 155.104L65.3068 161.296C66.1543 161.74 67.1403 161.838 68.0589 161.572C68.9775 161.306 69.7576 160.694 70.2362 159.866C70.7149 159.038 70.8551 158.057 70.6275 157.128C70.4 156.199 69.8223 155.394 69.0151 154.881L63.3784 151.581L75.0967 144.794C75.5399 144.563 75.9316 144.244 76.2482 143.856C76.5649 143.469 76.7999 143.022 76.9393 142.542C77.0786 142.061 77.1194 141.558 77.0591 141.061C76.9988 140.565 76.8387 140.086 76.5884 139.653C76.3381 139.22 76.0028 138.842 75.6027 138.542C75.2025 138.242 74.7458 138.026 74.2601 137.907C73.7743 137.788 73.2695 137.768 72.776 137.849C72.2825 137.931 71.8105 138.111 71.3884 138.379L71.3513 138.416Z" fill="#79B8FF"/>
</g>
<defs>
<clipPath id="clip0">
</clipPath>
</defs>
</svg>

<svg width="233" height="233" fill="none" xmlns="http://www.w3.org/2000/svg"><g clip-path="url(#clip0)"><path d="M115.184 116.871L83.7 135.079V98.626l31.558-18.208-.074 36.453z" fill="#79B8FF"/><path d="M83.663 71.036a9.827 9.827 0 110-19.654 9.827 9.827 0 010 19.654zm0-12.237a2.41 2.41 0 102.41 2.41 2.41 2.41 0 00-2.41-2.336v-.074zM84.516 181.247a9.825 9.825 0 01-6.949-16.776 9.827 9.827 0 116.949 16.776zm0-12.237a2.409 2.409 0 00-.47 4.774 2.414 2.414 0 002.474-1.025c.265-.396.406-.862.406-1.339a2.412 2.412 0 00-2.41-2.447v.037zM52.365 126.401a9.826 9.826 0 01-1.917-19.465 9.827 9.827 0 111.917 19.465zm0-12.237a2.41 2.41 0 00-.47 4.774 2.406 2.406 0 002.474-1.025 2.408 2.408 0 00-2.004-3.749zM180.635 126.401a9.825 9.825 0 01-9.638-11.744 9.827 9.827 0 119.638 11.744zm0-12.237a2.41 2.41 0 10-.001 4.819 2.41 2.41 0 00.001-4.819z" fill="#2088FF"/><path d="M177.632 134.93a3.712 3.712 0 00-3.709 3.709v6.712l-12.386-7.194a3.713 3.713 0 00-4.127.275 3.7 3.7 0 00-1.306 3.901c.257.945.877 1.75 1.725 2.239l12.126 7.009-5.525 3.189a3.714 3.714 0 00-1.592 1.792 3.713 3.713 0 001.172 4.383 3.706 3.706 0 002.274.759 3.701 3.701 0 001.854-.519l13.091-7.416v-15.13a3.708 3.708 0 00-3.597-3.709zM168.138 71.666a3.72 3.72 0 00-5.446 4.197 3.719 3.719 0 001.738 2.256l5.525 3.152-12.979 7.417a3.706 3.706 0 00-1.754 4.184 3.707 3.707 0 003.608 2.75 3.713 3.713 0 001.855-.519l13.238-7.49v6.748a3.71 3.71 0 006.331 2.623 3.71 3.71 0 001.086-2.623v-15.13l-13.202-7.564z" fill="#79B8FF"/><path d="M148.558 138.008a3.714 3.714 0 01-1.854-.519l-31.595-18.097a3.71 3.71 0 013.709-6.415l31.595 18.097a3.708 3.708 0 011.26 5.043 3.706 3.706 0 01-3.115 1.891z" fill="#2088FF"/><path d="M116.964 119.912a3.712 3.712 0 01-3.709-3.709l.223-35.08a3.706 3.706 0 013.708-3.709 3.706 3.706 0 013.708 3.709l-.222 35.043a3.712 3.712 0 01-3.708 3.746z" fill="#2088FF"/><path d="M86.296 137.452a3.705 3.705 0 01-3.609-2.75 3.709 3.709 0 011.755-4.185l30.667-17.54a3.711 3.711 0 015.551 4.163 3.696 3.696 0 01-1.842 2.252L88.15 136.97a3.716 3.716 0 01-1.854.482z" fill="#2088FF"/><path d="M117.038 156.327a3.694 3.694 0 01-1.854-.482L83.626 137.6a3.706 3.706 0 01-1.854-3.189V97.958a3.709 3.709 0 011.854-3.226l31.558-18.208a3.705 3.705 0 013.708 0l31.558 18.208a3.718 3.718 0 011.361 1.364 3.72 3.72 0 01.493 1.862v36.453a3.706 3.706 0 01-1.854 3.189l-31.558 18.245a3.697 3.697 0 01-1.854.482zm-27.85-24.067l27.85 16.094 27.849-16.094v-32.188l-27.849-16.057-27.85 16.057v32.188zM148.818 71.036a9.827 9.827 0 110-19.655 9.827 9.827 0 010 19.655zm0-12.237a2.408 2.408 0 00-2.364 2.88 2.404 2.404 0 001.894 1.894 2.409 2.409 0 002.88-2.364 2.408 2.408 0 00-2.41-2.336v-.074zM149.337 181.878a9.84 9.84 0 01-5.48-1.62 9.827 9.827 0 115.48 1.62zm0-12.238a2.415 2.415 0 00-2.227 1.488 2.415 2.415 0 00.523 2.627 2.409 2.409 0 004.115-1.704 2.449 2.449 0 00-2.411-2.411z" fill="#2088FF"/><path d="M126.123 177.02l-5.637 3.226v-13.832a3.704 3.704 0 00-3.708-3.708 3.706 3.706 0 00-3.708 3.708v13.795l-5.896-3.189a3.708 3.708 0 00-5.044 1.335 3.71 3.71 0 001.335 5.08l13.091 7.417 13.127-7.417a3.714 3.714 0 001.722-2.263 3.697 3.697 0 00-.387-2.817 3.71 3.71 0 00-4.895-1.335zM129.831 49.565l-13.127-7.417-13.239 7.417a3.706 3.706 0 00-1.221 4.985 3.709 3.709 0 004.93 1.43l5.747-3.3v12.386a3.707 3.707 0 003.709 3.708 3.708 3.708 0 003.708-3.708V52.717l5.637 3.263c.554.315 1.18.48 1.817.482a3.709 3.709 0 001.891-6.897h.148zM75.838 88.54l-12.46-7.417 5.637-3.227a3.721 3.721 0 00-3.708-6.452l-13.09 7.417v15.13a3.708 3.708 0 107.416 0v-6.267l12.46 7.416a3.707 3.707 0 005.08-1.372 3.709 3.709 0 00-1.335-5.229zM71.351 138.416l-11.718 6.823v-6.6a3.71 3.71 0 00-3.708-3.709 3.71 3.71 0 00-3.709 3.709v15.092l1.373.816c.3.221.623.408.964.557l10.754 6.192a3.708 3.708 0 003.708-6.415l-5.637-3.3 11.719-6.787a3.707 3.707 0 10-3.708-6.415l-.038.037z" fill="#79B8FF"/></g><defs><clipPath id="clip0"/></defs></svg>
